X:25
T:Girl I Left Behind Me,The. JBs.025
S:Jas.Blackshaw MS, 1837, N.Shropshire
Z:T. Weatherall 2006
M:2/4
L:1/8
Q:1/4=100
A:North Shropshire
R:Country Dance
K:C
â€œ_cr in MSâ€câ€™|g>f ed|ec A>B|ccce|g2 ecâ€™|g>f ed|ec A>c|BdGB|c2c:|!
|:c|egab|câ€™gec|egab|câ€™2g>câ€™|g>f ed|ec A>c|BdGB|c2c:|

